X: 38474
T: Steamboat, The
R: jig
M: 6/8
K: Dmajor
|:A|d2 A F2 E DFA d2 A|dcB AGF EAG FED|
d2 A F2 E DFA d2 A|dcB AGF AGE D2:|
|:G|F2 A ABA ABA FED|G2 B B2 ^A B2 A Bcd|
F2 A ABA ABA FED|dcB AGF AGE D2:|

